X: 0871
T: EDINBURGH QUICK STEP
C: Dr. A. S. Grenville
B: Oliver Ditson "The Boston Collection of Instrumental Music" 1910 p.87 #1
F: http://conquest.imslp.info/files/imglnks/usimg/8/8f/IMSLP175643-PMLP309456-bostoncollection00bost_bw.pdf
%: 2012 John Chambers <jc:trillian.mit.edu>
M: 6/8
L: 1/8
K: Bb
g |\
f>ed Td>cB | B<GG G3 | F<BB B>cd | Td<cc c2g |\
f>ed Td>cB | B<GG G3 | F<BB ceA | B2B B2 :|
|: F |\
D<FB dbg | f<dd Td2c | B>df gfd | Tc2c c2F |\
D<FB dbg | f<dd Td2c | Bgf dBc | B2B B2 :|

%%sep 1 1 500
%%sep 1 1 500
